src/images/portfolio-resinate/divider-center-down.svg

<svg height="133" viewBox="0 0 1440 133" width="1440" xmlns="http://www.w3.org/2000/svg"><g fill="#fff" fill-rule="evenodd"><path d="m653.763085-653.763085h49.52617c11.474959 168.674552 21.474959 288.832495 30 360.47383 12.787561 107.462003 52 260.4624267 52 360.0000002 0 99.5375738-42.306747 264.2731768-52 359.9999998-6.462169 63.817882-16.462169 183.659939-30 359.52617h-49.52617z" opacity=".353627" transform="matrix(0 1 1 0 653.289255 -653.289255)"/><path d="m675.346982-677.346982h36c10.824523 166.981433 19.157856 287.314766 25 361 8.763215 110.527851 28.306036 273.363649 28.306036 360.0000003 0 80.9984177-18.621045 232.5750217-28.306036 359.9999997-5.911381 77.775753-14.244714 198.109086-25 361h-36z" transform="matrix(0 1 1 0 676.346982 -676.346982)"/></g></svg>

<?xml version="1.0" encoding="UTF-8"?>
<svg width="1440px" height="133px" viewBox="0 0 1440 133" version="1.1" xmlns="http://www.w3.org/2000/svg" xmlns:xlink="http://www.w3.org/1999/xlink">
    <!-- Generator: Sketch 50.2 (55047) - http://www.bohemiancoding.com/sketch -->
    <title>divider-center-down</title>
    <desc>Created with Sketch.</desc>
    <defs></defs>
    <g id="divider-center-down" stroke="none" stroke-width="1" fill="none" fill-rule="evenodd">
        <path d="M653.763085,-653.763085 L703.289255,-653.763085 C714.764214,-485.088533 724.764214,-364.93059 733.289255,-293.289255 C746.076816,-185.827252 785.289255,-32.8268283 785.289255,66.7107452 C785.289255,166.248319 742.982508,330.983922 733.289255,426.710745 C726.827086,490.528627 716.827086,610.370684 703.289255,786.236915 L653.763085,786.236915 L653.763085,-653.763085 Z" id="Rectangle-3" fill="#FFFFFF" opacity="0.353627232" transform="translate(719.526170, 66.236915) scale(-1, 1) rotate(90.000000) translate(-719.526170, -66.236915) "></path>
        <path d="M675.346982,-677.346982 L711.346982,-677.346982 C722.171505,-510.365549 730.504838,-390.032216 736.346982,-316.346982 C745.110197,-205.819131 764.653018,-42.983333 764.653018,43.6530183 C764.653018,124.651436 746.031973,276.22804 736.346982,403.653018 C730.435601,481.428771 722.102268,601.762104 711.346982,764.653018 L675.346982,764.653018 L675.346982,-677.346982 Z" id="Rectangle-3" fill="#FFFFFF" transform="translate(720.000000, 43.653018) scale(-1, 1) rotate(90.000000) translate(-720.000000, -43.653018) "></path>
    </g>
</svg>
